X:200
T:Carreg i'r Cleddau
M:4/4
L:1/8
Q:180
C:John Tose
R:Hornpipe
K:G
GF | E2 B2 BA GB | A2 F2 F2 BA | GE GE AF DF | EF GF
E2 GF | E2 B2 BA GB | A2 F2 F2 BA | GE GE AF DF | E2
E2 E2 :||: GA | BG EG B2 dB | AF DF A2 BA |
G4 A4 | ED EF EF GA | BG EG B2 dB | AF DF A2
BA | GE GE AF DF | E2 E2 E2 :||
